img/mail.svg

<svg width="25" height="24" viewBox="0 0 25 24" fill="none" xmlns="http://www.w3.org/2000/svg">
<path d="M16.625 3.75H4.375C3.67881 3.75 3.01113 3.99693 2.51884 4.43647C2.02656 4.87601 1.75 5.47215 1.75 6.09375V13.9062C1.75 14.5279 2.02656 15.124 2.51884 15.5635C3.01113 16.0031 3.67881 16.25 4.375 16.25H16.625C17.3212 16.25 17.9889 16.0031 18.4812 15.5635C18.9734 15.124 19.25 14.5279 19.25 13.9062V6.09375C19.25 5.47215 18.9734 4.87601 18.4812 4.43647C17.9889 3.99693 17.3212 3.75 16.625 3.75ZM16.625 5.3125L10.9375 8.80469C10.8045 8.87326 10.6536 8.90936 10.5 8.90936C10.3464 8.90936 10.1955 8.87326 10.0625 8.80469L4.375 5.3125H16.625Z" fill="#FC6733"/>
</svg>

<svg width="25" height="24" viewBox="0 0 25 24" fill="none" xmlns="http://www.w3.org/2000/svg"><path d="M16.625 3.75H4.375c-.696 0-1.364.247-1.856.686-.492.44-.769 1.036-.769 1.658v7.812c0 .622.277 1.218.769 1.657a2.79 2.79 0 0 0 1.856.687h12.25a2.79 2.79 0 0 0 1.856-.687c.492-.439.769-1.035.769-1.657V6.094c0-.622-.277-1.218-.769-1.658a2.793 2.793 0 0 0-1.856-.686zm0 1.563l-5.688 3.492a.957.957 0 0 1-.874 0L4.375 5.313h12.25z" fill="#FC6733"/></svg>
